X: 39219
T: Ta Dick Veg Er Yannoo Mie
R: jig
M: 6/8
K: Eminor
EGG GFE|E2FG2A|B2BA2A|GFE D3|
EGG GFE|E2FG2A|Bdc BAG|FGFE3:|

